svg/plus_outline.svg

<svg xmlns="http://www.w3.org/2000/svg" viewBox="0 0 24 24"><path d="M4 9h5V4h6v5h5v6h-5v5H9v-5H4zm7 4v5h2v-5h5v-2h-5V6h-2v5H6v2z"/></svg>

<?xml version="1.0" encoding="UTF-8"?><!DOCTYPE svg PUBLIC "-//W3C//DTD SVG 1.1//EN" "http://www.w3.org/Graphics/SVG/1.1/DTD/svg11.dtd"><svg xmlns="http://www.w3.org/2000/svg" xmlns:xlink="http://www.w3.org/1999/xlink" version="1.1" id="mdi-plus-outline" width="24" height="24" viewBox="0 0 24 24"><path d="M4,9H9V4H15V9H20V15H15V20H9V15H4V9M11,13V18H13V13H18V11H13V6H11V11H6V13H11Z" /></svg>
